X:1
T:James Gibb editions
T:I saw my lady weep - Dowland
T:#
%%score [ 1 2 ]
L:1/8
Q:1/4=130
M:4/4
K:C
V:1 treble nm="Soprano" snm="S"
V:2 bass nm="Bass" snm="B"
V:1
"^I saw my lady weep""^John Dowland\n(1563-1626)" z8 | z8 | z8 | z8 | B8- | B8 |[M:4/4] c8- | %7
w: ||||~I||saw|
w: ||||~Sor\-||row|
w: ||||~O||fair\-|
 c4 (B4- | B2 A2) A4- | A4 ^G4 | A8 | z8 | z4 z2 A2 | d8- | d4 c4 | B4 e4- | e4 d4- | d2 c2 c4- | %18
w: * my|* * la\-|* dy|weep,||And|sor\-|* row|proud to|* be|* ad- van\-|
w: * was|* * there|* made|fair,||And|pas\-|* sion|wise, tears|* a|* de- light\-|
w: * er|* * than|* aught|else,||The|world|* can|show, leave|* off|* in time|
 c4 B4 | c8 | z8 | z8 | z4 G4 | G4 ^G4 | A6 A2 | B6 B2 | c6 c2 | _B2 A2 A4- | A4 G4 | A8 | z4 A4 | %31
w: * ced|so:|||In|those fair|eyes, in|those fair|eyes where|all per- fec\-|* tions|keep,|Her|
w: * ful|thing,|||Si-|lence be-|yond all|speech, be-|yond all|speech a wis\-|* dom|rare,|She|
w: * to|grieve,|||E-|nough, e-|nough, e-|nough, e-|nough, your|joy- ful looks|* ex-|cels,|Tears|
 B6 B2 | B4 ^F4 | G8 | E6 (^F2 | G4) ^F4 | z4 ^G4- | G2 ^G2 A4 | B6 B2 | A4 A2- A2 | c6 c2 | B8 | %42
w: face was|full of|woe,|full of|* woe;|But|* such a|woe, be-|lieve me, as|wins more|hearts,|
w: made her|sighs to|sing,|sighs to|* sing,|And|* all things|with so|sweet a *|sad- ness|move,|
w: kills the|heart, be-|lieve,|heart be\-|* lieve.|O|* strive not|to be|ex- cel\- *|lent in|woe,|
 z4 c4 | B4 d2 c2- | c2 B2 A2 E2 | F4 G4 | A6 A2 | ^G16 |] %48
w: Than|mirth can do,|* with her, with|her en-|ti- cing|parts.|
w: As|made my heart|* at once, at|once both|grieve and|love.|
w: which|on- ly, on\-|* ly breeds your|beau- ty's|o- ver-|throw.|
V:2
 A,8 | A,8 | G,8 | F,4 F,4 | E,8- | E,8 |[M:4/4] A,,8 | ^G,,8 | A,,8 | E,6 E,2 | F,8 | E,8 | %12
w: ~I|saw|my|la- dy|weep,||I|saw|my|la- dy|weep,|I|
w: ~Sor-|row|was|there made|fair,||sor-|row|was|there made|fair,|sor-|
w: ~O|fair-|er|than aught|else,||O|fair-|er|than aught|else,|O|
 D,4 C,4 | B,,6 B,,2 | A,,4 A,,4 | E,6 E,2 | F,4 F,4 | G,8- | G,4 G,,4 | C,8- | C,4 C,4 | %21
w: saw my|la- dy|weep, I|saw my|la- dy|weep,|* And|sor\-|* row|
w: row was|there made|fair, sor-|row was|there made|fair,|* And|pas\-|* sion|
w: fair- er|than aught|else, O|fair- er|than aught|else,|* The|world|* can|
 F,,2 G,,2 A,,2 B,,2 | C,6 C,2 | B,,4 E,4 | ^C,4 ^F,4 | ^D,4 E,4 | A,,6 A,,2 | D,6 C,2 | _B,,8 | %29
w: proud to be ad-|van- ced|so: In|those fair|eyes, fair|eyes, where|all per-|fec-|
w: wise, tears a de-|light- ful|thing, Si-|lence be-|yond, be-|yond all|speech a|wis-|
w: show, leave off in|time to|grieve, E-|nough, your|joy- ful|looks, your|joy- ful|looks|
 A,,8 | D,8 | z4 B,,4 | B,,8 | (E,6 D,2) | C,8 | B,,6 B,,2 | E,8 | z4 A,,4 | D,6 D,2 | ^C,4 D,4 | %40
w: tions|keep,|Her|face|was *|full,|full of|woe;|But|such a|woe as|
w: dom|rare,|She|made|her sighs|to|sing, And|all|things|with so|sweet a|
w: ex-|cels,|O|strive|not to|be|ex- cel-|lent|in|woe, Tears|kills the|
 E,8- | E,8 | A,,8 | E,4 B,,2 C,2- | C,2 G,,2 A,,4- | A,,2 A,,2 G,,2 G,,2 | F,,6 F,,2 | E,,16 |] %48
w: wins||more|hearts, Than mirth|* can do,|* with her en-|ti- cing|parts.|
w: sad\-||ness|move, As made|* my heart|* at once both|grieve and|love.|
w: heart,||be-|lieve, which on\-|* ly breeds|* your beau- ty's|o- ver-|throw.|

